flaticon/household/sofa-1.svg

<svg xmlns="http://www.w3.org/2000/svg" width="32" height="32" viewBox="0 0 24 24">
    <path d="M 23.167969 10.871094 C 23.007812 10.621094 22.785156 10.46875 22.539062 10.421875 L 20.792969 9.375 L 20.792969 7.53125 C 20.792969 6.246094 19.75 5.203125 18.46875 5.203125 L 5.53125 5.203125 C 4.25 5.203125 3.203125 6.246094 3.203125 7.53125 L 3.203125 9.375 L 1.460938 10.421875 C 1.214844 10.46875 0.992188 10.621094 0.832031 10.871094 C -0.277344 12.625 -0.277344 15.371094 0.832031 17.125 C 1.023438 17.425781 1.304688 17.597656 1.605469 17.597656 C 1.878906 17.597656 2.136719 17.449219 2.324219 17.199219 L 2.40625 17.199219 L 2.40625 18.398438 C 2.40625 18.617188 2.582031 18.796875 2.804688 18.796875 L 4.402344 18.796875 C 4.625 18.796875 4.804688 18.617188 4.804688 18.398438 L 4.804688 17.199219 L 19.195312 17.199219 L 19.195312 18.398438 C 19.195312 18.617188 19.375 18.796875 19.597656 18.796875 L 21.195312 18.796875 C 21.417969 18.796875 21.59375 18.617188 21.59375 18.398438 L 21.59375 17.199219 L 21.675781 17.199219 C 21.863281 17.449219 22.121094 17.597656 22.394531 17.597656 C 22.695312 17.597656 22.976562 17.425781 23.167969 17.125 C 24.277344 15.371094 24.277344 12.625 23.167969 10.871094 Z M 4.402344 16.398438 L 2.753906 16.398438 C 2.859375 16.140625 2.945312 15.875 3.015625 15.597656 L 20.984375 15.597656 C 21.054688 15.875 21.140625 16.140625 21.246094 16.398438 Z M 4.003906 11.523438 C 4.003906 11.34375 4.148438 11.199219 4.328125 11.199219 L 6.082031 11.199219 C 6.257812 11.199219 6.402344 11.34375 6.402344 11.523438 L 6.402344 13.277344 C 6.402344 13.453125 6.257812 13.597656 6.082031 13.597656 L 4.328125 13.597656 C 4.148438 13.597656 4.003906 13.453125 4.003906 13.277344 Z M 3.25 13.597656 C 3.257812 13.625 3.269531 13.644531 3.28125 13.667969 C 3.289062 13.691406 3.296875 13.714844 3.304688 13.734375 C 3.324219 13.78125 3.351562 13.824219 3.378906 13.867188 C 3.386719 13.882812 3.394531 13.898438 3.402344 13.910156 C 3.4375 13.964844 3.480469 14.015625 3.527344 14.0625 C 3.539062 14.074219 3.550781 14.082031 3.566406 14.09375 C 3.601562 14.128906 3.640625 14.160156 3.679688 14.191406 C 3.699219 14.203125 3.71875 14.214844 3.738281 14.226562 C 3.777344 14.25 3.816406 14.273438 3.855469 14.289062 C 3.878906 14.300781 3.898438 14.3125 3.921875 14.320312 C 3.964844 14.335938 4.007812 14.351562 4.054688 14.359375 C 4.078125 14.367188 4.097656 14.375 4.117188 14.378906 C 4.1875 14.390625 4.253906 14.398438 4.328125 14.398438 L 6.082031 14.398438 C 6.152344 14.398438 6.222656 14.390625 6.289062 14.378906 C 6.308594 14.375 6.332031 14.367188 6.351562 14.359375 C 6.398438 14.347656 6.441406 14.335938 6.484375 14.320312 C 6.507812 14.3125 6.53125 14.300781 6.550781 14.289062 C 6.59375 14.273438 6.632812 14.25 6.667969 14.226562 C 6.6875 14.214844 6.707031 14.203125 6.726562 14.191406 C 6.769531 14.160156 6.804688 14.128906 6.84375 14.09375 C 6.855469 14.082031 6.867188 14.074219 6.878906 14.0625 C 6.925781 14.015625 6.96875 13.964844 7.003906 13.910156 C 7.015625 13.898438 7.019531 13.882812 7.03125 13.867188 C 7.054688 13.824219 7.082031 13.78125 7.101562 13.734375 C 7.113281 13.714844 7.117188 13.691406 7.128906 13.667969 C 7.136719 13.644531 7.148438 13.625 7.15625 13.597656 L 16.84375 13.597656 C 16.851562 13.625 16.863281 13.644531 16.871094 13.667969 C 16.878906 13.691406 16.886719 13.714844 16.898438 13.734375 C 16.917969 13.78125 16.941406 13.824219 16.96875 13.867188 C 16.976562 13.882812 16.984375 13.898438 16.992188 13.910156 C 17.03125 13.964844 17.074219 14.015625 17.121094 14.0625 C 17.132812 14.074219 17.144531 14.082031 17.15625 14.09375 C 17.191406 14.128906 17.230469 14.160156 17.273438 14.191406 C 17.292969 14.203125 17.3125 14.214844 17.332031 14.226562 C 17.367188 14.25 17.40625 14.273438 17.449219 14.289062 C 17.46875 14.300781 17.492188 14.3125 17.515625 14.320312 C 17.558594 14.335938 17.601562 14.351562 17.648438 14.359375 C 17.667969 14.367188 17.6875 14.375 17.710938 14.378906 C 17.777344 14.390625 17.847656 14.398438 17.917969 14.398438 L 19.671875 14.398438 C 19.746094 14.398438 19.8125 14.390625 19.882812 14.378906 C 19.902344 14.375 19.921875 14.367188 19.945312 14.359375 C 19.988281 14.347656 20.035156 14.335938 20.078125 14.320312 C 20.101562 14.3125 20.121094 14.300781 20.144531 14.289062 C 20.183594 14.273438 20.222656 14.25 20.261719 14.226562 C 20.28125 14.214844 20.300781 14.203125 20.320312 14.191406 C 20.359375 14.160156 20.398438 14.128906 20.433594 14.09375 C 20.445312 14.082031 20.460938 14.074219 20.472656 14.0625 C 20.519531 14.015625 20.558594 13.964844 20.597656 13.910156 C 20.605469 13.898438 20.613281 13.882812 20.621094 13.867188 C 20.648438 13.824219 20.671875 13.78125 20.695312 13.734375 C 20.703125 13.714844 20.710938 13.691406 20.71875 13.667969 C 20.730469 13.644531 20.738281 13.625 20.746094 13.597656 L 20.800781 13.597656 C 20.777344 14 20.789062 14.402344 20.835938 14.796875 L 3.164062 14.796875 C 3.210938 14.402344 3.222656 14 3.199219 13.597656 Z M 19.671875 11.199219 C 19.851562 11.199219 19.996094 11.34375 19.996094 11.523438 L 19.996094 13.277344 C 19.996094 13.453125 19.851562 13.597656 19.671875 13.597656 L 17.917969 13.597656 C 17.742188 13.597656 17.597656 13.453125 17.597656 13.277344 L 17.597656 11.523438 C 17.597656 11.34375 17.742188 11.199219 17.917969 11.199219 Z M 21.652344 10.824219 C 21.644531 10.839844 21.632812 10.855469 21.621094 10.871094 C 21.539062 11 21.46875 11.132812 21.398438 11.269531 C 21.382812 11.300781 21.371094 11.332031 21.355469 11.363281 C 21.296875 11.484375 21.246094 11.605469 21.195312 11.730469 C 21.1875 11.753906 21.179688 11.777344 21.171875 11.796875 C 21.054688 12.117188 20.960938 12.453125 20.898438 12.800781 L 20.792969 12.800781 L 20.792969 10.308594 Z M 5.53125 6.003906 L 18.46875 6.003906 C 19.308594 6.003906 19.996094 6.6875 19.996094 7.53125 L 19.996094 10.449219 C 19.992188 10.445312 19.988281 10.445312 19.984375 10.445312 C 19.988281 10.429688 19.996094 10.417969 19.996094 10.402344 C 19.996094 10.179688 19.816406 10 19.59375 10 C 19.375 10 19.195312 10.179688 19.195312 10.402344 L 17.917969 10.402344 C 17.800781 10.402344 17.691406 10.425781 17.585938 10.457031 C 17.589844 10.4375 17.597656 10.421875 17.597656 10.402344 C 17.597656 10.179688 17.417969 10 17.195312 10 C 16.976562 10 16.796875 10.179688 16.796875 10.402344 C 16.796875 10.582031 16.921875 10.730469 17.085938 10.777344 C 16.910156 10.976562 16.796875 11.234375 16.796875 11.523438 L 16.796875 12.800781 L 15.199219 12.800781 C 15.199219 12.578125 15.019531 12.398438 14.796875 12.398438 C 14.578125 12.398438 14.398438 12.578125 14.398438 12.800781 L 12.800781 12.800781 C 12.800781 12.578125 12.621094 12.398438 12.398438 12.398438 C 12.179688 12.398438 12 12.578125 12 12.800781 L 10.402344 12.800781 C 10.402344 12.578125 10.222656 12.398438 10 12.398438 C 9.78125 12.398438 9.601562 12.578125 9.601562 12.800781 L 8.003906 12.800781 C 8.003906 12.578125 7.824219 12.398438 7.601562 12.398438 C 7.382812 12.398438 7.203125 12.578125 7.203125 12.800781 L 7.203125 11.523438 C 7.203125 10.90625 6.699219 10.402344 6.082031 10.402344 L 5.601562 10.402344 C 5.601562 10.179688 5.425781 10 5.203125 10 C 4.984375 10 4.804688 10.179688 4.804688 10.402344 L 4.328125 10.402344 C 4.257812 10.402344 4.191406 10.410156 4.125 10.421875 C 4.105469 10.425781 4.085938 10.429688 4.066406 10.433594 C 4.046875 10.4375 4.023438 10.441406 4.003906 10.449219 L 4.003906 9.601562 C 4.226562 9.601562 4.402344 9.421875 4.402344 9.203125 C 4.402344 8.980469 4.226562 8.800781 4.003906 8.800781 L 4.003906 7.53125 C 4.003906 7.414062 4.019531 7.304688 4.042969 7.195312 C 4.246094 7.171875 4.402344 7.007812 4.402344 6.804688 C 4.402344 6.722656 4.375 6.652344 4.335938 6.59375 C 4.613281 6.234375 5.042969 6.003906 5.53125 6.003906 Z M 3.203125 10.308594 L 3.203125 12.800781 L 3.101562 12.800781 C 3.039062 12.453125 2.945312 12.117188 2.828125 11.796875 C 2.820312 11.777344 2.8125 11.753906 2.804688 11.734375 C 2.753906 11.605469 2.703125 11.484375 2.644531 11.363281 C 2.628906 11.332031 2.617188 11.300781 2.601562 11.273438 C 2.535156 11.132812 2.460938 11 2.378906 10.871094 C 2.367188 10.855469 2.359375 10.835938 2.347656 10.820312 Z M 1.507812 11.300781 C 1.558594 11.222656 1.597656 11.203125 1.605469 11.199219 C 1.613281 11.203125 1.65625 11.222656 1.703125 11.300781 C 1.804688 11.460938 1.894531 11.640625 1.976562 11.824219 C 2.003906 11.890625 2.03125 11.957031 2.054688 12.027344 C 2.101562 12.148438 2.140625 12.273438 2.179688 12.398438 C 2.203125 12.484375 2.230469 12.570312 2.25 12.65625 C 2.277344 12.777344 2.296875 12.898438 2.320312 13.019531 C 2.332031 13.097656 2.347656 13.171875 2.359375 13.25 C 2.367188 13.328125 2.371094 13.40625 2.378906 13.484375 C 2.386719 13.597656 2.394531 13.710938 2.398438 13.820312 C 2.402344 13.929688 2.402344 14.035156 2.402344 14.140625 C 2.398438 14.269531 2.390625 14.398438 2.378906 14.527344 C 2.367188 14.664062 2.347656 14.796875 2.328125 14.925781 C 2.308594 15.046875 2.289062 15.164062 2.261719 15.28125 C 2.246094 15.355469 2.230469 15.433594 2.210938 15.503906 C 2.164062 15.671875 2.109375 15.835938 2.046875 15.996094 C 2.019531 16.058594 1.996094 16.121094 1.96875 16.183594 C 1.894531 16.351562 1.8125 16.511719 1.71875 16.664062 L 1.695312 16.710938 C 1.648438 16.773438 1.613281 16.796875 1.605469 16.796875 C 1.597656 16.796875 1.554688 16.777344 1.507812 16.699219 C 0.566406 15.210938 0.566406 12.789062 1.507812 11.300781 Z M 4.003906 17.996094 L 3.203125 17.996094 L 3.203125 17.195312 L 4.003906 17.195312 Z M 20.796875 17.996094 L 19.996094 17.996094 L 19.996094 17.195312 L 20.796875 17.195312 Z M 22.492188 16.699219 C 22.441406 16.777344 22.402344 16.796875 22.394531 16.796875 C 22.386719 16.796875 22.351562 16.773438 22.304688 16.710938 L 22.277344 16.664062 C 22.1875 16.511719 22.105469 16.351562 22.03125 16.183594 C 22.003906 16.121094 21.976562 16.058594 21.953125 15.996094 C 21.890625 15.835938 21.835938 15.671875 21.789062 15.503906 C 21.769531 15.433594 21.753906 15.355469 21.738281 15.28125 C 21.710938 15.164062 21.691406 15.046875 21.671875 14.925781 C 21.652344 14.792969 21.632812 14.660156 21.621094 14.527344 C 21.609375 14.398438 21.601562 14.269531 21.597656 14.140625 C 21.597656 14.035156 21.597656 13.929688 21.601562 13.820312 C 21.605469 13.707031 21.609375 13.597656 21.621094 13.484375 C 21.628906 13.40625 21.632812 13.328125 21.640625 13.25 C 21.652344 13.171875 21.667969 13.097656 21.679688 13.019531 C 21.699219 12.898438 21.71875 12.777344 21.75 12.65625 C 21.769531 12.570312 21.796875 12.484375 21.820312 12.398438 C 21.859375 12.273438 21.898438 12.148438 21.945312 12.023438 C 21.96875 11.957031 21.996094 11.890625 22.023438 11.824219 C 22.105469 11.640625 22.191406 11.464844 22.296875 11.300781 C 22.320312 11.265625 22.339844 11.246094 22.355469 11.230469 C 22.355469 11.226562 22.359375 11.222656 22.359375 11.222656 C 22.363281 11.222656 22.363281 11.222656 22.363281 11.21875 C 22.378906 11.207031 22.390625 11.203125 22.394531 11.203125 C 22.402344 11.203125 22.445312 11.222656 22.492188 11.300781 C 23.433594 12.789062 23.433594 15.210938 22.492188 16.699219 Z M 22.492188 16.699219"/>
    <path d="M6.804688 6.804688C6.804688 7.023438 6.625 7.203125 6.402344 7.203125 6.183594 7.203125 6.003906 7.023438 6.003906 6.804688 6.003906 6.582031 6.183594 6.402344 6.402344 6.402344 6.625 6.402344 6.804688 6.582031 6.804688 6.804688zM5.601562 8.003906C5.601562 8.222656 5.425781 8.402344 5.203125 8.402344 4.984375 8.402344 4.804688 8.222656 4.804688 8.003906 4.804688 7.78125 4.984375 7.601562 5.203125 7.601562 5.425781 7.601562 5.601562 7.78125 5.601562 8.003906zM8.003906 8.003906C8.003906 8.222656 7.824219 8.402344 7.601562 8.402344 7.382812 8.402344 7.203125 8.222656 7.203125 8.003906 7.203125 7.78125 7.382812 7.601562 7.601562 7.601562 7.824219 7.601562 8.003906 7.78125 8.003906 8.003906zM9.203125 6.804688C9.203125 7.023438 9.023438 7.203125 8.800781 7.203125 8.582031 7.203125 8.402344 7.023438 8.402344 6.804688 8.402344 6.582031 8.582031 6.402344 8.800781 6.402344 9.023438 6.402344 9.203125 6.582031 9.203125 6.804688zM11.601562 6.804688C11.601562 7.023438 11.421875 7.203125 11.199219 7.203125 10.980469 7.203125 10.800781 7.023438 10.800781 6.804688 10.800781 6.582031 10.980469 6.402344 11.199219 6.402344 11.421875 6.402344 11.601562 6.582031 11.601562 6.804688zM10.402344 8.003906C10.402344 8.222656 10.222656 8.402344 10 8.402344 9.78125 8.402344 9.601562 8.222656 9.601562 8.003906 9.601562 7.78125 9.78125 7.601562 10 7.601562 10.222656 7.601562 10.402344 7.78125 10.402344 8.003906zM12.800781 8.003906C12.800781 8.222656 12.621094 8.402344 12.398438 8.402344 12.179688 8.402344 12 8.222656 12 8.003906 12 7.78125 12.179688 7.601562 12.398438 7.601562 12.621094 7.601562 12.800781 7.78125 12.800781 8.003906zM14 6.804688C14 7.023438 13.820312 7.203125 13.597656 7.203125 13.378906 7.203125 13.199219 7.023438 13.199219 6.804688 13.199219 6.582031 13.378906 6.402344 13.597656 6.402344 13.820312 6.402344 14 6.582031 14 6.804688zM16.398438 6.804688C16.398438 7.023438 16.21875 7.203125 15.996094 7.203125 15.777344 7.203125 15.597656 7.023438 15.597656 6.804688 15.597656 6.582031 15.777344 6.402344 15.996094 6.402344 16.21875 6.402344 16.398438 6.582031 16.398438 6.804688zM15.199219 8.003906C15.199219 8.222656 15.019531 8.402344 14.796875 8.402344 14.578125 8.402344 14.398438 8.222656 14.398438 8.003906 14.398438 7.78125 14.578125 7.601562 14.796875 7.601562 15.019531 7.601562 15.199219 7.78125 15.199219 8.003906zM17.597656 8.003906C17.597656 8.222656 17.417969 8.402344 17.195312 8.402344 16.976562 8.402344 16.796875 8.222656 16.796875 8.003906 16.796875 7.78125 16.976562 7.601562 17.195312 7.601562 17.417969 7.601562 17.597656 7.78125 17.597656 8.003906zM18.796875 6.804688C18.796875 7.023438 18.617188 7.203125 18.398438 7.203125 18.175781 7.203125 17.996094 7.023438 17.996094 6.804688 17.996094 6.582031 18.175781 6.402344 18.398438 6.402344 18.617188 6.402344 18.796875 6.582031 18.796875 6.804688zM19.996094 8.003906C19.996094 8.222656 19.816406 8.402344 19.597656 8.402344 19.375 8.402344 19.195312 8.222656 19.195312 8.003906 19.195312 7.78125 19.375 7.601562 19.597656 7.601562 19.816406 7.601562 19.996094 7.78125 19.996094 8.003906zM6.804688 9.203125C6.804688 9.421875 6.625 9.601562 6.402344 9.601562 6.183594 9.601562 6.003906 9.421875 6.003906 9.203125 6.003906 8.980469 6.183594 8.800781 6.402344 8.800781 6.625 8.800781 6.804688 8.980469 6.804688 9.203125zM8.003906 10.402344C8.003906 10.621094 7.824219 10.800781 7.601562 10.800781 7.382812 10.800781 7.203125 10.621094 7.203125 10.402344 7.203125 10.179688 7.382812 10 7.601562 10 7.824219 10 8.003906 10.179688 8.003906 10.402344zM9.203125 9.203125C9.203125 9.421875 9.023438 9.601562 8.800781 9.601562 8.582031 9.601562 8.402344 9.421875 8.402344 9.203125 8.402344 8.980469 8.582031 8.800781 8.800781 8.800781 9.023438 8.800781 9.203125 8.980469 9.203125 9.203125zM11.601562 9.203125C11.601562 9.421875 11.421875 9.601562 11.199219 9.601562 10.980469 9.601562 10.800781 9.421875 10.800781 9.203125 10.800781 8.980469 10.980469 8.800781 11.199219 8.800781 11.421875 8.800781 11.601562 8.980469 11.601562 9.203125zM9.203125 11.601562C9.203125 11.820312 9.023438 12 8.800781 12 8.582031 12 8.402344 11.820312 8.402344 11.601562 8.402344 11.378906 8.582031 11.199219 8.800781 11.199219 9.023438 11.199219 9.203125 11.378906 9.203125 11.601562zM11.601562 11.601562C11.601562 11.820312 11.421875 12 11.199219 12 10.980469 12 10.800781 11.820312 10.800781 11.601562 10.800781 11.378906 10.980469 11.199219 11.199219 11.199219 11.421875 11.199219 11.601562 11.378906 11.601562 11.601562zM10.402344 10.402344C10.402344 10.621094 10.222656 10.800781 10 10.800781 9.78125 10.800781 9.601562 10.621094 9.601562 10.402344 9.601562 10.179688 9.78125 10 10 10 10.222656 10 10.402344 10.179688 10.402344 10.402344zM12.800781 10.402344C12.800781 10.621094 12.621094 10.800781 12.398438 10.800781 12.179688 10.800781 12 10.621094 12 10.402344 12 10.179688 12.179688 10 12.398438 10 12.621094 10 12.800781 10.179688 12.800781 10.402344zM14 9.203125C14 9.421875 13.820312 9.601562 13.597656 9.601562 13.378906 9.601562 13.199219 9.421875 13.199219 9.203125 13.199219 8.980469 13.378906 8.800781 13.597656 8.800781 13.820312 8.800781 14 8.980469 14 9.203125zM16.398438 9.203125C16.398438 9.421875 16.21875 9.601562 15.996094 9.601562 15.777344 9.601562 15.597656 9.421875 15.597656 9.203125 15.597656 8.980469 15.777344 8.800781 15.996094 8.800781 16.21875 8.800781 16.398438 8.980469 16.398438 9.203125zM14 11.601562C14 11.820312 13.820312 12 13.597656 12 13.378906 12 13.199219 11.820312 13.199219 11.601562 13.199219 11.378906 13.378906 11.199219 13.597656 11.199219 13.820312 11.199219 14 11.378906 14 11.601562zM16.398438 11.601562C16.398438 11.820312 16.21875 12 15.996094 12 15.777344 12 15.597656 11.820312 15.597656 11.601562 15.597656 11.378906 15.777344 11.199219 15.996094 11.199219 16.21875 11.199219 16.398438 11.378906 16.398438 11.601562zM15.199219 10.402344C15.199219 10.621094 15.019531 10.800781 14.796875 10.800781 14.578125 10.800781 14.398438 10.621094 14.398438 10.402344 14.398438 10.179688 14.578125 10 14.796875 10 15.019531 10 15.199219 10.179688 15.199219 10.402344zM18.796875 9.203125C18.796875 9.421875 18.617188 9.601562 18.398438 9.601562 18.175781 9.601562 17.996094 9.421875 17.996094 9.203125 17.996094 8.980469 18.175781 8.800781 18.398438 8.800781 18.617188 8.800781 18.796875 8.980469 18.796875 9.203125zM18.796875 9.203125"/>
</svg>

<svg xmlns="http://www.w3.org/2000/svg" width="32" height="32" viewBox="0 0 24 24">
    <path d="M23.168 10.871a.964.964 0 0 0-.629-.45l-1.746-1.046V7.531a2.328 2.328 0 0 0-2.324-2.328H5.53a2.331 2.331 0 0 0-2.328 2.328v1.844l-1.742 1.047a.964.964 0 0 0-.629.45c-1.11 1.753-1.11 4.5 0 6.253.191.3.473.473.773.473.274 0 .532-.149.72-.399h.081v1.2c0 .218.176.398.399.398h1.597c.223 0 .403-.18.403-.399V17.2h14.39v1.2c0 .218.18.398.403.398h1.597c.223 0 .399-.18.399-.399V17.2h.082c.187.25.445.399.719.399.3 0 .582-.172.773-.473 1.11-1.754 1.11-4.5 0-6.254zM4.402 16.398H2.754c.105-.257.191-.523.262-.8h17.968c.07.277.157.543.262.8zm-.398-4.875c0-.18.144-.324.324-.324h1.754c.176 0 .32.145.32.324v1.754c0 .176-.144.32-.32.32H4.328a.323.323 0 0 1-.324-.32zm-.754 2.075c.008.027.02.047.031.07.008.023.016.047.024.066.02.047.047.09.074.133l.023.043a.926.926 0 0 0 .125.152c.012.012.024.02.04.032.035.035.074.066.113.097l.058.036c.04.023.078.046.117.062.024.012.043.024.067.031a.745.745 0 0 0 .133.04c.023.007.043.015.062.019.07.012.137.02.211.02h1.754c.07 0 .14-.008.207-.02a.384.384 0 0 0 .063-.02c.046-.011.09-.023.132-.039a.346.346 0 0 0 .067-.03.558.558 0 0 0 .117-.063l.059-.036a1.41 1.41 0 0 0 .117-.097c.011-.012.023-.02.035-.031a.926.926 0 0 0 .125-.153c.012-.012.016-.027.027-.043.024-.043.051-.086.07-.133.012-.02.016-.043.028-.066.008-.023.02-.043.027-.07h9.688c.008.027.02.047.027.07a.864.864 0 0 0 .098.2c.008.015.015.03.023.042.04.055.082.106.13.152.01.012.023.02.034.032a.97.97 0 0 0 .117.097l.059.036a.558.558 0 0 0 .117.062.745.745 0 0 0 .2.07c.019.008.039.016.062.02a1.2 1.2 0 0 0 .207.02h1.754c.074 0 .14-.008.21-.02.02-.004.04-.012.063-.02.043-.011.09-.023.133-.039.024-.008.043-.02.067-.03.039-.017.078-.04.117-.063l.058-.036c.04-.03.078-.062.114-.097.011-.012.027-.02.039-.031a1.18 1.18 0 0 0 .125-.153l.023-.043c.027-.043.05-.086.074-.133l.024-.066a.376.376 0 0 0 .027-.07h.055c-.024.402-.012.804.035 1.199H3.164c.047-.395.059-.797.035-1.2zm16.422-2.399c.18 0 .324.145.324.324v1.754c0 .176-.144.32-.324.32h-1.754a.322.322 0 0 1-.32-.32v-1.754c0-.18.144-.324.32-.324zm1.98-.375c-.007.016-.02.031-.03.047a4.948 4.948 0 0 0-.224.399c-.015.03-.027.062-.043.093-.058.121-.109.242-.16.367-.008.024-.015.047-.023.067a6.03 6.03 0 0 0-.274 1.004h-.105v-2.492zm-16.12-4.82h12.937c.84 0 1.527.684 1.527 1.527v2.918c-.004-.004-.008-.004-.012-.004.004-.015.012-.027.012-.043a.401.401 0 0 0-.8 0h-1.278c-.117 0-.227.024-.332.055.004-.02.012-.035.012-.055a.401.401 0 0 0-.8 0c-.001.18.124.328.288.375-.176.2-.29.457-.29.746v1.278H15.2a.401.401 0 0 0-.8 0H12.8a.401.401 0 0 0-.8 0h-1.599a.401.401 0 0 0-.8 0H8.004a.401.401 0 0 0-.8 0v-1.278c0-.617-.505-1.12-1.122-1.12h-.48a.398.398 0 1 0-.797 0h-.477c-.07 0-.137.007-.203.019l-.059.012c-.02.004-.043.007-.062.015v-.847c.223 0 .398-.18.398-.399a.398.398 0 0 0-.398-.402V7.53c0-.117.016-.226.039-.336a.397.397 0 0 0 .36-.39.376.376 0 0 0-.067-.211c.277-.36.707-.59 1.195-.59zm-2.329 4.305V12.8h-.101a6.03 6.03 0 0 0-.274-1.004l-.023-.063a5.305 5.305 0 0 0-.16-.37c-.016-.032-.028-.063-.043-.09a3.647 3.647 0 0 0-.223-.403c-.012-.016-.02-.035-.031-.05zm-1.695.992c.05-.078.09-.098.097-.102.008.004.051.024.098.102.102.16.192.34.274.523.027.067.054.133.078.203.047.121.086.246.125.371.023.086.05.172.07.258.027.121.047.242.07.364.012.078.028.152.04.23.007.078.011.156.019.234.008.114.016.227.02.336.003.11.003.215.003.32a6.417 6.417 0 0 1-.074.786c-.02.12-.039.238-.066.355-.016.074-.032.153-.051.223a5.192 5.192 0 0 1-.164.492c-.027.063-.05.125-.078.188a3.99 3.99 0 0 1-.25.48l-.024.047c-.047.062-.082.086-.09.086-.007 0-.05-.02-.097-.098-.942-1.488-.942-3.91 0-5.398zm2.496 6.695h-.8v-.8h.8zm16.793 0h-.8v-.8h.8zm1.695-1.297c-.05.078-.09.098-.097.098-.008 0-.043-.024-.09-.086l-.028-.047a4.623 4.623 0 0 1-.246-.48c-.027-.063-.054-.125-.078-.188a5.192 5.192 0 0 1-.164-.492c-.02-.07-.035-.149-.05-.223a5.193 5.193 0 0 1-.067-.355 6.417 6.417 0 0 1-.074-.785c0-.106 0-.211.004-.32.003-.114.007-.223.02-.337.007-.078.01-.156.019-.234.011-.078.027-.152.039-.23.02-.122.039-.243.07-.364.02-.086.047-.172.07-.258.04-.125.078-.25.125-.375.024-.066.051-.132.078-.199.082-.183.168-.36.274-.523.023-.035.043-.055.058-.07 0-.004.004-.008.004-.008.004 0 .004 0 .004-.004.016-.012.028-.016.032-.016.007 0 .05.02.097.098.942 1.488.942 3.91 0 5.398zm0 0"/>
    <path d="M6.805 6.805a.401.401 0 1 1-.802-.005.401.401 0 0 1 .802.005zm0 0M5.602 8.004a.398.398 0 1 1-.797 0 .398.398 0 0 1 .797 0zm0 0M8.004 8.004a.401.401 0 1 1-.802-.005.401.401 0 0 1 .802.005zm0 0M9.203 6.805a.401.401 0 1 1-.802-.005.401.401 0 0 1 .802.005zm0 0M11.602 6.805A.401.401 0 1 1 10.8 6.8a.401.401 0 0 1 .802.005zm0 0M10.402 8.004a.401.401 0 1 1-.802-.005.401.401 0 0 1 .802.005zm0 0M12.8 8.004A.401.401 0 1 1 12 7.999a.401.401 0 0 1 .802.005zm0 0M14 6.805a.401.401 0 1 1-.802-.005.401.401 0 0 1 .802.005zm0 0M16.398 6.805a.401.401 0 1 1-.801-.005.401.401 0 0 1 .801.005zm0 0M15.2 8.004a.401.401 0 1 1-.803-.005.401.401 0 0 1 .802.005zm0 0M17.598 8.004a.401.401 0 1 1-.802-.005.401.401 0 0 1 .802.005zm0 0M18.797 6.805a.4.4 0 1 1-.8-.004.4.4 0 0 1 .8.004zm0 0M19.996 8.004a.4.4 0 1 1-.8-.003.4.4 0 0 1 .8.003zm0 0M6.805 9.203a.401.401 0 1 1-.802-.005.401.401 0 0 1 .802.005zm0 0M8.004 10.402a.401.401 0 1 1-.802-.005.401.401 0 0 1 .802.005zm0 0M9.203 9.203a.401.401 0 1 1-.802-.005.401.401 0 0 1 .802.005zm0 0M11.602 9.203a.401.401 0 1 1-.802-.005.401.401 0 0 1 .802.005zm0 0M9.203 11.602a.401.401 0 1 1-.802-.005.401.401 0 0 1 .802.005zm0 0M11.602 11.602a.401.401 0 1 1-.802-.005.401.401 0 0 1 .802.005zm0 0M10.402 10.402a.401.401 0 1 1-.802-.005.401.401 0 0 1 .802.005zm0 0M12.8 10.402a.401.401 0 1 1-.801-.005.401.401 0 0 1 .802.005zm0 0M14 9.203a.401.401 0 1 1-.802-.005.401.401 0 0 1 .802.005zm0 0M16.398 9.203a.401.401 0 1 1-.801-.005.401.401 0 0 1 .801.005zm0 0M14 11.602a.401.401 0 1 1-.802-.005.401.401 0 0 1 .802.005zm0 0M16.398 11.602a.401.401 0 1 1-.801-.005.401.401 0 0 1 .801.005zm0 0M15.2 10.402a.401.401 0 1 1-.803-.005.401.401 0 0 1 .802.005zm0 0M18.797 9.203a.4.4 0 1 1-.8-.003.4.4 0 0 1 .8.003zm0 0"/>
</svg>
